img/icon_map.svg

<svg width="100" height="100" viewBox="0 0 100 100" fill="none" xmlns="http://www.w3.org/2000/svg">
    <g clip-path="url(#clip0_373_2)">
        <path d="M33.523 34.9861C28.2187 34.9861 23.1316 37.0932 19.3809 40.8439C15.6301 44.5947 13.523 49.6818 13.523 54.9861C13.523 60.2904 15.6301 65.3775 19.3809 69.1282C23.1316 72.8789 28.2187 74.9861 33.523 74.9861C38.8273 74.9861 43.9144 72.8789 47.6651 69.1282C51.4159 65.3775 53.523 60.2904 53.523 54.9861C53.523 49.6818 51.4159 44.5947 47.6651 40.8439C43.9144 37.0932 38.8273 34.9861 33.523 34.9861ZM39.727 39.0741C40.1672 39.0776 40.5987 39.1972 40.9778 39.421C41.3569 39.6447 41.6702 39.9646 41.8861 40.3483C42.1019 40.7319 42.2126 41.1658 42.207 41.606C42.2014 42.0462 42.0796 42.4771 41.854 42.8551L34.954 54.8071L42.201 59.4791C42.477 59.657 42.7152 59.8874 42.9021 60.1574C43.089 60.4273 43.2209 60.7315 43.2903 61.0524C43.3596 61.3733 43.3651 61.7047 43.3064 62.0278C43.2477 62.3508 43.1259 62.6591 42.948 62.9351C42.7701 63.2111 42.5396 63.4493 42.2697 63.6362C41.9998 63.8231 41.6956 63.955 41.3747 64.0243C41.0538 64.0937 40.7224 64.0992 40.3993 64.0405C40.0763 63.9817 39.768 63.86 39.492 63.6821L30.242 57.7211C29.7024 57.3732 29.3174 56.8311 29.1666 56.2071C29.0158 55.5831 29.1108 54.9249 29.432 54.3691L37.523 40.3551C37.7418 39.9637 38.0619 39.6383 38.4496 39.4131C38.8374 39.1879 39.2786 39.0712 39.727 39.0751V39.0741Z"
              fill="#CE282E"/>
        <path fill-rule="evenodd" clip-rule="evenodd"
              d="M2.523 5.00011C2.19276 4.99708 1.8652 5.0595 1.55923 5.18377C1.25325 5.30805 0.974934 5.49172 0.740346 5.72417C0.505758 5.95661 0.31955 6.23324 0.192477 6.53806C0.0654046 6.84289 -1.39742e-05 7.16986 2.23904e-09 7.50011L2.23904e-09 77.7901C7.9951e-05 78.2666 0.136324 78.7331 0.392685 79.1348C0.649047 79.5364 1.01485 79.8564 1.447 80.0571L33.113 94.7671C33.4502 94.9239 33.8181 95.0035 34.19 95.0001C34.5466 94.9973 34.8985 94.9182 35.222 94.7681L65.835 80.5471L96.448 94.7671C96.8289 94.9438 97.2481 95.0217 97.667 94.9936C98.086 94.9656 98.4911 94.8325 98.845 94.6066C99.1989 94.3807 99.4902 94.0693 99.6921 93.7012C99.894 93.333 99.9999 92.92 100 92.5001V22.2101C99.9999 21.7336 99.8637 21.2671 99.6073 20.8655C99.351 20.4638 98.9852 20.1438 98.553 19.9431L66.887 5.23311C66.5495 5.07617 66.1812 4.99656 65.809 5.00011C65.4531 5.00324 65.1019 5.08234 64.779 5.23211L34.166 19.4531L3.553 5.23311C3.23017 5.08299 2.87901 5.00355 2.523 5.00011V5.00011ZM66.951 10.7751L95 23.8051V88.5821L67.322 75.7251L66.951 10.7751ZM63.953 11.1291L64.323 75.7341L35.646 89.0571L35.584 78.1861C34.586 78.2641 33.584 78.2761 32.584 78.2191L32.646 89.0371L5 76.1931V11.4181L32.275 24.0881L32.32 31.9961C33.3236 31.989 34.3266 32.0498 35.322 32.1781L35.277 24.4511L63.953 11.1291Z"
              fill="#CE282E"/>
    </g>
    <defs>
        <clipPath id="clip0_373_2">
            <rect width="100" height="100" fill="white"/>
        </clipPath>
    </defs>
</svg>

<svg width="100" height="100" fill="none" xmlns="http://www.w3.org/2000/svg"><g clip-path="url(#clip0_373_2)" fill="#CE282E"><path d="M33.523 34.986a20 20 0 100 40 20 20 0 000-40zm6.204 4.088a2.5 2.5 0 012.127 3.781l-6.9 11.952 7.247 4.672a2.5 2.5 0 11-2.709 4.203l-9.25-5.96a2.5 2.5 0 01-.81-3.353l8.091-14.014a2.5 2.5 0 012.204-1.28z"/><path fill-rule="evenodd" clip-rule="evenodd" d="M2.523 5A2.5 2.5 0 000 7.5v70.29a2.5 2.5 0 001.447 2.267l31.666 14.71a2.5 2.5 0 002.109.001l30.613-14.22 30.613 14.22A2.5 2.5 0 00100 92.5V22.21a2.5 2.5 0 00-1.447-2.267L66.887 5.233a2.5 2.5 0 00-2.108 0l-30.613 14.22L3.553 5.233A2.5 2.5 0 002.523 5zm64.428 5.775L95 23.805v64.777L67.322 75.725l-.371-64.95zm-2.998.354l.37 64.605-28.677 13.323-.062-10.87c-.998.077-2 .09-3 .032l.062 10.818L5 76.193V11.418l27.275 12.67.045 7.908a22.252 22.252 0 013.002.182l-.045-7.727L63.953 11.13z"/></g><defs><clipPath id="clip0_373_2"><path fill="#fff" d="M0 0h100v100H0z"/></clipPath></defs></svg>
